public/images/cloud-blue-last.svg

<svg width="430" height="210" viewBox="0 0 430 210" fill="none" xmlns="http://www.w3.org/2000/svg">
<path fill-rule="evenodd" clip-rule="evenodd" d="M193.823 0C225.965 0 254.423 15.7718 271.881 39.9985C274.322 39.7882 276.792 39.6809 279.288 39.6809C310.093 39.6809 337.077 56.0369 352.031 80.5385C356.051 79.765 360.201 79.36 364.447 79.36C400.522 79.36 429.766 108.605 429.766 144.68C429.766 180.755 400.522 209.999 364.447 209.999V210H82.4126V210C36.8974 210 0 173.103 0 127.588C0 82.0724 36.8974 45.175 82.4127 45.175C91.9335 45.175 101.077 46.7894 109.585 49.7595C125.956 20.0939 157.543 0 193.823 0Z" fill="#258ACB"/>
</svg>

<svg xmlns="http://www.w3.org/2000/svg" width="430" height="210" fill="none" viewBox="0 0 430 210"><path fill="#258acb" fill-rule="evenodd" d="M193.823 0c32.142 0 60.6 15.772 78.058 39.999a86 86 0 0 1 7.407-.318c30.805 0 57.789 16.356 72.743 40.858a65.7 65.7 0 0 1 12.416-1.179c36.075 0 65.319 29.245 65.319 65.32s-29.244 65.319-65.319 65.319V210H82.413C36.897 210 0 173.103 0 127.588s36.897-82.413 82.413-82.413a82.3 82.3 0 0 1 27.172 4.585C125.956 20.094 157.543 0 193.823 0" clip-rule="evenodd"/></svg>
